X: 8
T: Charlie Hunter
R: jig
M: 6/8
L: 1/8
K: Dmaj
|:DFA GBd|Adf a2g|f3 dB/c/d|ecA GFE|
DFA GBd|Adf a2g|f3 gec|1edc d2A:|2edc dfg||
|:afd dB/c/d|BGF G2F|EGB e2d|cAA A2e|
fdA DFA|GBd g2e|f3 gec|1edc dfg:|2edc d2A|


Tune 809	Setting 13963

